X:1
T:The Virginia
R:reel
M:4/4
L:1/8
K:D
|:DBBA B2BB-|BAdB AFEF|DF~F2 A2AB|AFBF AFEF|
|DBBA B2BB-|BAdB ABde|~f2fe defe|dBAF BE~E2:|
|:defe d2dA|BAFA dAFA|defe defg|afbf afeg|
|~f2df efdB|AF~F2 ABde|~f2fe defe|dBAF BE~E2:|